X: 75
T: Shenandoah Falls
R:reel
S:Combined from several versions, and simplifiedls/ShenandoahFalls.abc
Z:2011 John Chambers <jc:trillian.mit.edu>
M:C|
L:1/8
K:A
   cd |\
"A"e2ef edcB | A2{B}c2 "D"d4 | "A"c4 "F#m"B2A2 | "Bm"BAGF "E"E2cd |\
"A"e2ef edcB | A2{B}c2 "D"d4 | "A"c2{B}Ac "E"BAG2 | "A" A6 :|
|: G2 |\
"Bm"F4B4 | F2B2- B2F2 | "A"A2cA    BcAB | cABc- cBA2 |\
"Bm"F4B4 | F2B2- B2ed | "A"c2{B}Ac "E"BAG2 | "A"A6 :|

%%sep 1 1 500

